assets/symbols/mulberry/work_book.svg

<svg height="850.394" viewBox="0 0 850.394 850.394" width="850.394" xmlns="http://www.w3.org/2000/svg"><g fill="#ffeec8"><path d="m777.37 563.1-326.42 22.82 300.51-55.3-67.39-366.23 32.25-5.11 75.38 402.82z"/><path d="m777.37 563.1 2.83 39.48-329.35-14.39.1-2.27zm-326.429 22.808-67.4-366.235 300.514-55.306 67.4 366.235zm-88.161-362.408 67.39 366.25-300.5 55.29-67.4-366.24z"/></g><g fill="none"><g><path d="m430.17 589.75-300.5 55.29-67.4-366.24 300.51-55.3z" stroke="#000" stroke-width="24.444"/><path d="m450.941 585.908-67.4-366.235 300.514-55.306 67.4 366.235z" stroke="#000" stroke-width="24.444489"/><path d="m438.71 586.94.3 1.65m-67.5-366.85 67.2 365.2" stroke="#fff" stroke-dasharray="12.222" stroke-width="6.111"/><g stroke="#000"><path d="m450.95 585.92 326.42-22.82 14.33-1-75.38-402.82-32.25 5.11" stroke-width="18.333"/><path d="m438.95 587.67 11.9.52 329.35 14.39-2.83-39.48-.01-.13" stroke-width="18.333"/><path d="m423.33 256.89 241.38-48.89m-235.96 76.29 241.38-48.89m-237.28 73.51 241.38-48.89m-236.05 75.25 241.39-48.89m-234.63 74.37 241.39-48.89m-235.97 76.29 241.39-48.89m-237.29 73.51 241.39-48.89m-236.05 75.25 241.38-48.89" stroke-width="12.222"/></g></g><path d="m0 0h850.394v850.394h-850.394z"/></g></svg>

<svg xmlns="http://www.w3.org/2000/svg" width="850.394" height="850.394" viewBox="0 0 850.394 850.394" overflow="visible"><g fill="#ffeec8"><path d="M777.37 563.1l-326.42 22.82 300.51-55.3-67.39-366.23 32.25-5.11L791.7 562.1z"/><path d="M777.37 563.1l2.83 39.48-329.35-14.39.1-2.27zM450.941 585.908l-67.4-366.235 300.514-55.306 67.4 366.235zM362.78 223.5l67.39 366.25-300.5 55.29-67.4-366.24z"/></g><g fill="none"><path stroke="#000" stroke-width="24.444" d="M430.17 589.75l-300.5 55.29-67.4-366.24 300.51-55.3z"/><path stroke="#000" stroke-width="24.444488879999998" d="M450.941 585.908l-67.4-366.235 300.514-55.306 67.4 366.235z"/><path stroke="#fff" stroke-width="6.111" stroke-dasharray="12.222" d="M438.71 586.94l.3 1.65M371.51 221.74l67.2 365.2"/><path stroke="#000" stroke-width="18.333" d="M450.95 585.92l326.42-22.82 14.33-1-75.38-402.82-32.25 5.11"/><path stroke="#000" stroke-width="18.333" d="M438.95 587.67l11.9.52 329.35 14.39-2.83-39.48-.01-.13"/><path stroke="#000" stroke-width="12.222" d="M423.33 256.89L664.71 208M428.75 284.29l241.38-48.89M432.85 308.91l241.38-48.89M438.18 335.27l241.39-48.89M444.94 360.75l241.39-48.89M450.36 388.15l241.39-48.89M454.46 412.77l241.39-48.89M459.8 439.13l241.38-48.89"/></g><path fill="none" d="M0 0h850.394v850.394H0z"/></svg>
